!!!COM: Johannes Brahms
!!!CNT: Deutscher
!!!TXO: Deutsche
!!!OTL: Es tra2umte mir
!!!OPS: Op. 57
!!!ONM: No. 3
!!!LYR: Daumer
!!!ONB: Original key: B Major
!!!ENC: Ayako Kataoka        
!!!EED: Leigh VanHandel
!!!YOR: C.F. Peters, Brahms Lieder fu2r eine Singstimme mit Klavierbegleitung, Band III, ausgabe fu2r tiefere Stimme
!!!ODT: 1871/
!!NB: Vocal melody and text only encoded.
**kern	**silbe
*clefG2	*
*k[b-e-a-d-]	*
*M6/8	*
*MM[adagio]	*
!! tempo indication: sehr langsam
=4	=4
4r	.
{8a-	{Es
4dd-	tra2um-
8cc	-te
=5	=5
4b-	mir,
8a-	ich
4g	sei
8a-	dir
=6	=6
([4.dd-	teu-
8dd-]	|
8ee-	|
8cc)	|
=7	=7
4b-}	-er,}
8r	.
4r	.
8r	.
=8	=8
4r	.
{8cc	{doch
4b-	zu
8b-	er-
=9	=9
4.an	-wa-
4ee-	-chen
8ee-	be-
=10	=10
4.dd-	-durft
4.cc	ich
=11	=11
4f}	kaum;}
8r	.
4r	.
8r	.
=12	=12
4r	.
{8f-	{denn
4b-	schon
8b-	im
=13	=13
4.b-	Trau-
4a-}	-me}
8r	.
=14	=14
4r	.
{8g	{be-
4dd-	-reits
8dd-	emp-
=15	=15
4.dd-	-fand
4cc}	ich,}
{8cc	{es
=16	=16
([4.ff-	sei
8ff-]	|
8ee-)	|
8dd-	ein
=17	=17
4.cc-}	Traum;}
4r	.
{8cc-	{es
=18	=18
([4.ee-	sei
8ee-]	|
8dd-)	|
8b-	ein
=19	=19
4.a-}	Traum;}
4r	.
8r	.
=24	=24
4r	.
8r	.
{4dd-	{ach,
8cc	im
=25	=25
4b-	Traum
8a-	be-
4g	-reits
8a-	emp-
=26	=26
(4ee-	-fand
8dd-)	|
4a-}	ich,}
8r	.
=27	=27
4r	.
8r	.
4r	.
{8a-	{es
=28	=28
[4.cc-	sei
4cc-]	|
8b-	ein
=29	=29
4a-}	Traum,}
8r	.
4r	.
{8ee-	{es
=30	=30
([4.ddn	sei
4dd-]	|
8cc-)	|
=31	=31
([4.cc-	ein
4cc-]	|
8b-)	|
=32	=32
4.a-}	Traum.}
4r	.
8r	.
*-	*-
